flaticon/essential/exit.svg

<svg xmlns="http://www.w3.org/2000/svg" width="32" height="32" viewBox="0 0 24 24">
    <path d="M 23.324219 12.164062 C 23.367188 12.058594 23.367188 11.941406 23.324219 11.835938 C 23.300781 11.785156 23.269531 11.734375 23.230469 11.695312 L 18.089844 6.554688 C 17.921875 6.386719 17.652344 6.386719 17.484375 6.554688 C 17.316406 6.722656 17.316406 6.992188 17.484375 7.160156 L 21.894531 11.570312 L 8.785156 11.570312 C 8.550781 11.570312 8.359375 11.761719 8.359375 12 C 8.359375 12.238281 8.550781 12.429688 8.785156 12.429688 L 21.894531 12.429688 L 17.484375 16.839844 C 17.316406 17.007812 17.316406 17.277344 17.484375 17.445312 C 17.566406 17.53125 17.675781 17.570312 17.785156 17.570312 C 17.894531 17.570312 18.003906 17.53125 18.089844 17.445312 L 23.230469 12.304688 C 23.269531 12.265625 23.300781 12.214844 23.324219 12.164062 Z M 23.324219 12.164062"/>
    <path d="M 15.644531 14.144531 C 15.40625 14.144531 15.214844 14.335938 15.214844 14.570312 L 15.214844 23.144531 L 1.5 23.144531 L 1.5 0.855469 L 15.214844 0.855469 L 15.214844 9.429688 C 15.214844 9.664062 15.40625 9.855469 15.644531 9.855469 C 15.878906 9.855469 16.070312 9.664062 16.070312 9.429688 L 16.070312 0.429688 C 16.070312 0.191406 15.878906 0 15.644531 0 L 1.070312 0 C 0.835938 0 0.644531 0.191406 0.644531 0.429688 L 0.644531 23.570312 C 0.644531 23.808594 0.835938 24 1.070312 24 L 15.644531 24 C 15.878906 24 16.070312 23.808594 16.070312 23.570312 L 16.070312 14.570312 C 16.070312 14.335938 15.878906 14.144531 15.644531 14.144531 Z M 15.644531 14.144531"/>
</svg>

<svg xmlns="http://www.w3.org/2000/svg" width="32" height="32" viewBox="0 0 24 24">
    <path d="M23.324 12.164a.434.434 0 0 0-.094-.469l-5.14-5.14a.427.427 0 0 0-.606 0 .427.427 0 0 0 0 .605l4.41 4.41H8.786a.428.428 0 0 0-.426.43c0 .238.192.43.426.43h13.11l-4.41 4.41a.427.427 0 0 0 .3.73c.11 0 .219-.039.305-.125l5.14-5.14c.04-.04.07-.09.094-.14zm0 0"/>
    <path d="M15.645 14.145a.428.428 0 0 0-.43.425v8.575H1.5V.855h13.715V9.43a.428.428 0 0 0 .855 0v-9a.428.428 0 0 0-.425-.43H1.07a.428.428 0 0 0-.425.43v23.14c0 .239.19.43.425.43h14.575a.428.428 0 0 0 .425-.43v-9a.427.427 0 0 0-.425-.425zm0 0"/>
</svg>
